; generated by PrusaSlicer 2.1.0+ on 2020-03-02 at 17:33:04 UTC

; 

; external perimeters extrusion width = 0.45mm
; perimeters extrusion width = 0.45mm
; infill extrusion width = 0.45mm
; solid infill extrusion width = 0.45mm
; top infill extrusion width = 0.40mm
; first layer extrusion width = 0.42mm

M73 P0 R12
M73 Q0 S12
M201 X1000 Y1000 Z1000 E5000 ; sets maximum accelerations, mm/sec^2
M203 X200 Y200 Z12 E120 ; sets maximum feedrates, mm/sec
M204 P1250 R1250 T1250 ; sets acceleration (P, T) and retract acceleration (R), mm/sec^2
M205 X8.00 Y8.00 Z0.40 E1.50 ; sets the jerk limits, mm/sec
M205 S0 T0 ; sets the minimum extruding and travel feed rate, mm/sec
M107
M862.3 P "MK3S" ; printer model check
M862.1 P0.4 ; nozzle diameter check
M115 U3.8.0 ; tell printer latest fw version
G90 ; use absolute coordinates
M83 ; extruder relative mode
M104 S215 ; set extruder temp
M140 S60 ; set bed temp
M190 S60 ; wait for bed temp
M109 S215 ; wait for extruder temp
G28 W ; home all without mesh bed level
G80 ; mesh bed leveling
G1 Y-3.0 F1000.0 ; go outside print area
G92 E0.0
G1 X60.0 E9.0 F1000.0 ; intro line
M73 Q0 S12
M73 P0 R12
G1 X100.0 E12.5 F1000.0 ; intro line
G92 E0.0
M221 S95
G21 ; set units to millimeters
G90 ; use absolute coordinates
M83 ; use relative distances for extrusion
M900 K30 ; Filament gcode
;BEFORE_LAYER_CHANGE
G92 E0.0
;0.2


G1 E-0.80000 F2100.00000
G1 Z0.600 F10800.000
;AFTER_LAYER_CHANGE
;0.2
G1 X115.755 Y97.249
G1 Z0.200
G1 E0.80000 F2100.00000
M204 S1000
G1 F1200
G1 X116.597 Y96.344 E0.03875
G1 X118.199 Y95.036 E0.06484
G1 X119.257 Y94.390 E0.03888
G1 X120.420 Y93.838 E0.04036
G1 X121.639 Y93.412 E0.04049
G1 X122.843 Y93.130 E0.03875
G1 X124.878 Y92.935 E0.06409
G1 X126.136 Y92.988 E0.03950
G1 X127.414 Y93.178 E0.04049
G1 X128.663 Y93.503 E0.04049
G1 X129.820 Y93.939 E0.03875
G1 X131.638 Y94.924 E0.06484
G1 X132.637 Y95.658 E0.03888
G1 X133.589 Y96.525 E0.04036
G1 X134.446 Y97.491 E0.04049
G1 X135.166 Y98.500 E0.03888
G1 X136.125 Y100.328 E0.06471
G1 X136.547 Y101.494 E0.03888
G1 X136.855 Y102.744 E0.04036
G1 X137.028 Y104.024 E0.04049
G1 X137.064 Y105.255 E0.03863
G1 X136.843 Y107.315 E0.06496
G1 X136.543 Y108.518 E0.03888
G1 X136.102 Y109.728 E0.04037
G1 X135.534 Y110.887 E0.04049
G1 X134.873 Y111.937 E0.03888
G1 X133.549 Y113.515 E0.06459
G1 X132.628 Y114.350 E0.03900
G1 X131.588 Y115.109 E0.04036
G1 X130.470 Y115.755 E0.04049
G1 X129.341 Y116.258 E0.03875
G1 X127.358 Y116.833 E0.06471
G1 X126.132 Y117.013 E0.03888
G1 X124.873 Y117.065 E0.03950
G1 X122.842 Y116.870 E0.06397
G1 X121.639 Y116.587 E0.03875
G1 X120.420 Y116.162 E0.04049
G1 X119.257 Y115.610 E0.04036
G1 X118.198 Y114.964 E0.03888
G1 X116.597 Y113.656 E0.06484
G1 X115.755 Y112.751 E0.03875
G1 X114.979 Y111.718 E0.04049
G1 X114.321 Y110.612 E0.04036
G1 X113.802 Y109.486 E0.03888
G1 X113.201 Y107.511 E0.06471
G1 X113.005 Y106.287 E0.03888
G1 X112.936 Y105.002 E0.04036
G1 X113.005 Y103.712 E0.04049
G1 X113.201 Y102.488 E0.03888
G1 X113.802 Y100.513 E0.06471
G1 X114.321 Y99.387 E0.03888
G1 X114.980 Y98.281 E0.04037
G1 X115.719 Y97.297 E0.03861
G1 X116.020 Y97.523 F10800.000
G1 F1200
G1 X116.866 Y96.609 E0.03903
G1 X118.407 Y95.350 E0.06240
G1 X119.434 Y94.723 E0.03774
G1 X120.565 Y94.186 E0.03923
G1 X121.746 Y93.774 E0.03923
G1 X122.918 Y93.499 E0.03774
G1 X124.877 Y93.312 E0.06172
G1 X126.102 Y93.363 E0.03843
G1 X127.336 Y93.547 E0.03911
G1 X128.550 Y93.863 E0.03934
G1 X129.677 Y94.288 E0.03774
G1 X131.423 Y95.234 E0.06229
G1 X132.397 Y95.948 E0.03786
G1 X133.319 Y96.788 E0.03911
G1 X134.152 Y97.727 E0.03934
G1 X134.851 Y98.707 E0.03774
G1 X135.776 Y100.469 E0.06240
G1 X136.185 Y101.601 E0.03774
G1 X136.484 Y102.816 E0.03923
G1 X136.652 Y104.056 E0.03923
G1 X136.687 Y105.255 E0.03763
G1 X136.474 Y107.237 E0.06252
G1 X136.183 Y108.406 E0.03774
G1 X135.755 Y109.581 E0.03923
G1 X135.204 Y110.704 E0.03923
G1 X134.563 Y111.723 E0.03774
G1 X133.286 Y113.245 E0.06229
G1 X132.391 Y114.056 E0.03786
G1 X131.381 Y114.794 E0.03923
G1 X130.298 Y115.420 E0.03923
G1 X129.201 Y115.907 E0.03763
G1 X127.290 Y116.462 E0.06240
G1 X126.095 Y116.637 E0.03785
G1 X124.874 Y116.688 E0.03831
G1 X122.918 Y116.501 E0.06160
G1 X121.747 Y116.226 E0.03774
G1 X120.562 Y115.812 E0.03934
G1 X119.435 Y115.278 E0.03911
G1 X118.405 Y114.648 E0.03786
G1 X116.866 Y113.392 E0.06229
G1 X116.046 Y112.511 E0.03774
G1 X115.294 Y111.510 E0.03923
G1 X114.654 Y110.435 E0.03923
G1 X114.150 Y109.342 E0.03774
G1 X113.571 Y107.438 E0.06240
G1 X113.380 Y106.250 E0.03774
G1 X113.313 Y105.000 E0.03923
G1 X113.380 Y103.751 E0.03923
G1 X113.571 Y102.562 E0.03774
G1 X114.150 Y100.658 E0.06240
G1 X114.654 Y99.565 E0.03774
G1 X115.294 Y98.490 E0.03923
G1 X115.984 Y97.571 E0.03605
G1 F8640
G1 X116.866 Y96.609 E-0.30121
G1 X118.405 Y95.352 E-0.45879
G1 E-0.04000 F2100.00000
G1 Z0.800 F10800.000
G1 X118.155 Y99.295
G1 Z0.200
G1 E0.80000 F2100.00000
G1 F1200
G1 X118.492 Y98.913 E0.01597
G1 X118.828 Y98.572 E0.01501
G1 X119.182 Y98.250 E0.01501
G1 X119.552 Y97.947 E0.01501
G1 X119.939 Y97.665 E0.01501
G1 X120.339 Y97.404 E0.01498
G1 X120.776 Y97.153 E0.01580
G1 X121.181 Y96.948 E0.01423
G1 X121.619 Y96.754 E0.01501
G1 X122.066 Y96.585 E0.01501
G1 X122.522 Y96.439 E0.01501
G1 X122.985 Y96.318 E0.01501
G1 X123.454 Y96.223 E0.01501
G1 X123.927 Y96.152 E0.01501
G1 X124.403 Y96.107 E0.01498
G1 X125.361 Y96.095 E0.03002
G1 X125.838 Y96.127 E0.01501
G1 X126.313 Y96.184 E0.01501
G1 X126.784 Y96.267 E0.01501
G1 X127.251 Y96.376 E0.01501
G1 X127.710 Y96.509 E0.01501
G1 X128.162 Y96.666 E0.01501
G1 X128.605 Y96.848 E0.01501
G1 X129.037 Y97.053 E0.01501
G1 X129.457 Y97.281 E0.01498
G1 X129.886 Y97.546 E0.01580
G1 X130.260 Y97.804 E0.01423
G1 X130.639 Y98.096 E0.01501
G1 X131.001 Y98.409 E0.01501
G1 X131.346 Y98.740 E0.01501
G1 X131.673 Y99.090 E0.01501
G1 X131.981 Y99.456 E0.01501
G1 X132.268 Y99.839 E0.01501
G1 X132.535 Y100.236 E0.01501
G1 X132.779 Y100.648 E0.01501
G1 X133.002 Y101.071 E0.01501
G1 X133.201 Y101.507 E0.01501
G1 X133.377 Y101.952 E0.01501
G1 X133.528 Y102.406 E0.01501
G1 X133.655 Y102.867 E0.01501
G1 X133.757 Y103.335 E0.01501
G1 X133.834 Y103.807 E0.01501
G1 X133.886 Y104.283 E0.01501
G1 X133.911 Y104.761 E0.01501
G1 X133.911 Y105.239 E0.01501
G1 X133.886 Y105.717 E0.01501
G1 X133.834 Y106.193 E0.01501
G1 X133.757 Y106.665 E0.01501
G1 X133.655 Y107.133 E0.01501
G1 X133.528 Y107.594 E0.01501
G1 X133.377 Y108.048 E0.01501
G1 X133.201 Y108.493 E0.01501
G1 X133.002 Y108.929 E0.01501
G1 X132.779 Y109.352 E0.01501
G1 X132.535 Y109.763 E0.01498
G1 X131.981 Y110.544 E0.03002
G1 X131.673 Y110.910 E0.01501
G1 X131.346 Y111.260 E0.01501
G1 X131.002 Y111.591 E0.01498
G1 X130.260 Y112.196 E0.03002
G1 X129.866 Y112.468 E0.01501
G1 X129.458 Y112.719 E0.01501
G1 X129.037 Y112.947 E0.01501
G1 X128.605 Y113.152 E0.01501
G1 X128.162 Y113.334 E0.01501
G1 X127.710 Y113.491 E0.01501
G1 X127.251 Y113.624 E0.01498
G1 X126.760 Y113.737 E0.01580
G1 X126.313 Y113.816 E0.01423
G1 X125.838 Y113.873 E0.01501
G1 X125.361 Y113.905 E0.01501
G1 X124.882 Y113.912 E0.01501
G1 X124.404 Y113.893 E0.01501
G1 X123.927 Y113.848 E0.01501
G1 X123.454 Y113.777 E0.01501
G1 X122.985 Y113.682 E0.01501
G1 X122.522 Y113.561 E0.01501
G1 X122.066 Y113.415 E0.01501
G1 X121.619 Y113.246 E0.01501
G1 X121.181 Y113.052 E0.01501
G1 X120.754 Y112.835 E0.01501
G1 X120.340 Y112.596 E0.01501
G1 X119.939 Y112.335 E0.01501
G1 X119.552 Y112.053 E0.01501
G1 X119.182 Y111.750 E0.01498
G1 X118.810 Y111.410 E0.01580
G1 X118.492 Y111.087 E0.01423
G1 X118.174 Y110.729 E0.01501
G1 X117.877 Y110.354 E0.01501
G1 X117.599 Y109.964 E0.01501
G1 X117.344 Y109.560 E0.01501
G1 X117.110 Y109.142 E0.01501
G1 X116.899 Y108.712 E0.01501
G1 X116.711 Y108.272 E0.01501
G1 X116.548 Y107.822 E0.01501
G1 X116.409 Y107.365 E0.01498
G1 X116.289 Y106.876 E0.01580
G1 X116.204 Y106.430 E0.01423
G1 X116.140 Y105.955 E0.01501
G1 X116.102 Y105.478 E0.01501
G1 X116.089 Y105.000 E0.01501
G1 X116.102 Y104.522 E0.01501
G1 X116.140 Y104.045 E0.01501
G1 X116.204 Y103.570 E0.01501
G1 X116.294 Y103.100 E0.01501
G1 X116.408 Y102.635 E0.01501
G1 X116.547 Y102.178 E0.01498
G1 X116.721 Y101.705 E0.01580
G1 X116.899 Y101.288 E0.01423
G1 X117.110 Y100.858 E0.01501
G1 X117.344 Y100.440 E0.01501
G1 X117.599 Y100.036 E0.01501
G1 X118.118 Y99.342 E0.02716
G1 X117.823 Y99.107 F10800.000
G1 F1200
G1 X118.216 Y98.655 E0.01880
G1 X118.566 Y98.300 E0.01564
G1 X118.935 Y97.964 E0.01564
G1 X119.322 Y97.649 E0.01564
G1 X119.724 Y97.355 E0.01564
G1 X120.142 Y97.082 E0.01563
G1 X120.597 Y96.821 E0.01644
G1 X121.019 Y96.607 E0.01485
G1 X121.475 Y96.405 E0.01564
G1 X121.942 Y96.228 E0.01564
G1 X122.417 Y96.077 E0.01564
G1 X122.900 Y95.951 E0.01564
G1 X123.389 Y95.851 E0.01564
G1 X123.882 Y95.778 E0.01564
G1 X124.378 Y95.731 E0.01563
G1 X124.902 Y95.711 E0.01644
G1 X125.376 Y95.718 E0.01485
G1 X125.873 Y95.751 E0.01564
G1 X126.369 Y95.811 E0.01564
G1 X126.860 Y95.898 E0.01564
G1 X127.346 Y96.011 E0.01564
G1 X127.825 Y96.149 E0.01564
G1 X128.296 Y96.314 E0.01564
G1 X128.757 Y96.503 E0.01564
G1 X129.208 Y96.717 E0.01564
G1 X129.646 Y96.955 E0.01563
G1 X130.093 Y97.230 E0.01644
G1 X130.482 Y97.499 E0.01485
G1 X130.877 Y97.804 E0.01564
G1 X131.255 Y98.130 E0.01564
G1 X131.615 Y98.475 E0.01564
G1 X131.955 Y98.840 E0.01564
G1 X132.276 Y99.222 E0.01564
G1 X132.576 Y99.621 E0.01564
G1 X132.853 Y100.035 E0.01564
G1 X133.109 Y100.463 E0.01564
G1 X133.340 Y100.905 E0.01564
G1 X133.548 Y101.359 E0.01564
G1 X133.731 Y101.823 E0.01564
G1 X133.889 Y102.296 E0.01564
G1 X134.022 Y102.777 E0.01564
G1 X134.128 Y103.264 E0.01564
G1 X134.208 Y103.757 E0.01564
G1 X134.262 Y104.252 E0.01564
G1 X134.288 Y104.751 E0.01564
G1 X134.288 Y105.249 E0.01564
G1 X134.262 Y105.748 E0.01564
G1 X134.208 Y106.243 E0.01564
G1 X134.128 Y106.736 E0.01564
G1 X134.022 Y107.223 E0.01564
G1 X133.889 Y107.704 E0.01564
G1 X133.731 Y108.177 E0.01564
G1 X133.548 Y108.641 E0.01564
G1 X133.340 Y109.095 E0.01564
G1 X133.109 Y109.537 E0.01564
G1 X132.854 Y109.965 E0.01563
G1 X132.560 Y110.400 E0.01644
G1 X132.276 Y110.778 E0.01485
G1 X131.955 Y111.160 E0.01564
G1 X131.615 Y111.525 E0.01564
G1 X131.255 Y111.870 E0.01563
G1 X130.857 Y112.211 E0.01644
G1 X130.482 Y112.501 E0.01485
G1 X130.072 Y112.784 E0.01564
G1 X129.647 Y113.045 E0.01564
G1 X129.208 Y113.283 E0.01564
G1 X128.757 Y113.497 E0.01564
G1 X128.296 Y113.686 E0.01564
G1 X127.825 Y113.851 E0.01564
G1 X127.346 Y113.989 E0.01563
G1 X126.835 Y114.107 E0.01644
G1 X126.369 Y114.189 E0.01485
G1 X125.873 Y114.249 E0.01564
G1 X125.376 Y114.282 E0.01564
G1 X124.877 Y114.289 E0.01564
G1 X124.379 Y114.269 E0.01564
G1 X123.882 Y114.222 E0.01564
G1 X123.389 Y114.149 E0.01564
G1 X122.900 Y114.049 E0.01564
G1 X122.417 Y113.923 E0.01564
G1 X121.942 Y113.772 E0.01564
G1 X121.475 Y113.595 E0.01564
G1 X121.019 Y113.393 E0.01564
G1 X120.574 Y113.167 E0.01564
G1 X120.142 Y112.918 E0.01564
G1 X119.724 Y112.645 E0.01564
G1 X119.322 Y112.351 E0.01564
G1 X118.935 Y112.036 E0.01563
G1 X118.549 Y111.682 E0.01644
G1 X118.216 Y111.345 E0.01485
G1 X117.885 Y110.971 E0.01564
G1 X117.575 Y110.581 E0.01564
G1 X117.286 Y110.174 E0.01564
G1 X117.019 Y109.753 E0.01564
G1 X116.776 Y109.317 E0.01564
G1 X116.556 Y108.869 E0.01564
G1 X116.360 Y108.411 E0.01564
G1 X116.190 Y107.942 E0.01564
G1 X116.045 Y107.465 E0.01563
G1 X115.921 Y106.955 E0.01644
G1 X115.832 Y106.490 E0.01485
G1 X115.765 Y105.996 E0.01564
G1 X115.725 Y105.499 E0.01564
G1 X115.712 Y105.000 E0.01564
G1 X115.725 Y104.501 E0.01564
G1 X115.765 Y104.004 E0.01564
G1 X115.832 Y103.510 E0.01564
G1 X115.925 Y103.020 E0.01564
G1 X116.045 Y102.535 E0.01564
G1 X116.190 Y102.058 E0.01563
G1 X116.370 Y101.566 E0.01644
G1 X116.556 Y101.131 E0.01485
G1 X116.776 Y100.683 E0.01564
G1 X117.019 Y100.247 E0.01564
G1 X117.286 Y99.826 E0.01564
G1 X117.785 Y99.154 E0.02623
G1 X118.218 Y99.171 F10800.000
G1 F8640
G1 X118.216 Y98.655 E-0.15228
G1 X118.566 Y98.300 E-0.11518
G1 X118.935 Y97.964 E-0.11518
G1 X119.322 Y97.649 E-0.11518
G1 X119.724 Y97.355 E-0.11518
G1 X120.142 Y97.082 E-0.11512
G1 X120.262 Y97.014 E-0.03188
G1 E-0.04000 F2100.00000
G1 Z0.800 F10800.000
G1 X117.665 Y109.856
G1 Z0.200
G1 E0.80000 F2100.00000
G1 F1200
G1 X120.140 Y112.331 E0.11153
G1 F8640
G1 X117.812 Y110.003 E-0.76000
G1 E-0.04000 F2100.00000
G1 Z0.800 F10800.000
G1 X121.357 Y113.006
G1 Z0.200
G1 E0.80000 F2100.00000
G1 F1200
G1 X117.360 Y109.009 E0.18019
G1 X117.156 Y108.595 E0.01471
G1 X116.925 Y108.032 E0.01938
G1 X121.969 Y113.076 E0.22734
G1 X122.767 Y113.333 E0.02673
G1 X116.670 Y107.235 E0.27485
G1 X116.518 Y106.541 E0.02262
G1 X123.469 Y113.492 E0.31327
G1 X124.099 Y113.580 E0.02028
G1 X116.420 Y105.901 E0.34612
G1 X116.380 Y105.319 E0.01857
G1 X124.682 Y113.621 E0.37417
G1 X125.228 Y113.624 E0.01739
G1 X116.378 Y104.775 E0.39888
G1 X116.407 Y104.261 E0.01639
G1 X125.742 Y113.596 E0.42076
G1 X126.228 Y113.541 E0.01561
G1 X116.462 Y103.775 E0.44019
G1 X116.541 Y103.312 E0.01496
G1 X126.691 Y113.462 E0.45748
G1 X127.133 Y113.361 E0.01443
G1 X116.642 Y102.870 E0.47285
G1 X116.761 Y102.448 E0.01400
G1 X127.555 Y113.242 E0.48651
G1 X127.960 Y113.105 E0.01363
G1 X116.903 Y102.048 E0.49837
G1 X117.056 Y101.659 E0.01332
G1 X128.349 Y112.951 E0.50898
G1 X128.723 Y112.783 E0.01306
G1 X117.218 Y101.279 E0.51853
G1 X117.400 Y100.918 E0.01286
G1 X129.082 Y112.601 E0.52655
G1 X129.429 Y112.405 E0.01268
G1 X117.595 Y100.572 E0.53336
G1 X117.805 Y100.239 E0.01252
G1 X129.762 Y112.196 E0.53893
G1 X130.083 Y111.975 E0.01242
G1 X118.028 Y99.920 E0.54333
G1 X118.263 Y99.613 E0.01232
G1 X130.389 Y111.739 E0.54654
G1 X130.683 Y111.491 E0.01226
G1 X118.510 Y99.318 E0.54867
G1 X118.769 Y99.035 E0.01223
G1 X130.966 Y111.232 E0.54979
G1 X131.238 Y110.962 E0.01222
G1 X119.039 Y98.762 E0.54985
G1 X119.322 Y98.504 E0.01223
G1 X131.498 Y110.679 E0.54876
G1 X131.745 Y110.385 E0.01226
G1 X119.619 Y98.258 E0.54656
G1 X119.926 Y98.024 E0.01233
G1 X131.978 Y110.076 E0.54321
G1 X132.199 Y109.755 E0.01242
G1 X120.246 Y97.802 E0.53875
G1 X120.581 Y97.595 E0.01255
G1 X132.409 Y109.422 E0.53310
G1 X132.605 Y109.076 E0.01267
G1 X120.933 Y97.404 E0.52610
G1 X121.284 Y97.214 E0.01274
G1 X132.788 Y108.717 E0.51850
G1 X132.956 Y108.344 E0.01306
G1 X121.658 Y97.046 E0.50922
G1 X122.048 Y96.894 E0.01334
G1 X133.110 Y107.955 E0.49856
G1 X133.246 Y107.549 E0.01365
G1 X122.454 Y96.758 E0.48639
G1 X122.878 Y96.639 E0.01401
G1 X133.364 Y107.125 E0.47266
G1 X133.464 Y106.683 E0.01445
G1 X123.320 Y96.539 E0.45724
G1 X123.783 Y96.460 E0.01497
G1 X133.543 Y106.220 E0.43994
G1 X133.599 Y105.734 E0.01559
G1 X124.269 Y96.404 E0.42053
G1 X124.792 Y96.385 E0.01668
G1 X133.628 Y105.221 E0.39828
G1 X133.623 Y104.674 E0.01744
G1 X125.327 Y96.378 E0.37394
G1 X125.912 Y96.420 E0.01868
G1 X133.580 Y104.089 E0.34564
G1 X133.491 Y103.458 E0.02032
G1 X126.546 Y96.512 E0.31304
G1 X127.243 Y96.668 E0.02278
G1 X133.332 Y102.756 E0.27442
G1 X133.075 Y101.958 E0.02672
G1 X128.041 Y96.924 E0.22691
G1 X128.491 Y97.107 E0.01547
G1 X129.031 Y97.371 E0.01917
G1 X133.001 Y101.342 E0.17897
G1 F8640
G1 X130.674 Y99.015 E-0.76000
G1 E-0.04000 F2100.00000
G1 Z0.800 F10800.000
G1 X132.318 Y100.117
G1 Z0.200
G1 E0.80000 F2100.00000
G1 F1200
G1 X129.916 Y97.715 E0.10826
M106 S255
;BEFORE_LAYER_CHANGE
G92 E0.0
;0.35


G1 F8640
G1 X132.244 Y100.042 E-0.76000
G1 E-0.04000 F2100.00000
G1 Z0.800 F10800.000
;AFTER_LAYER_CHANGE
;0.35
G1 X135.166 Y98.500
G1 Z0.350
G1 E0.80000 F2100.00000
G1 F2427
G1 X136.125 Y100.328 E0.04992
G1 X136.547 Y101.494 E0.02999
G1 X136.855 Y102.744 E0.03114
G1 X137.028 Y104.024 E0.03123
G1 X137.064 Y105.255 E0.02980
G1 X136.843 Y107.315 E0.05011
G1 X136.543 Y108.518 E0.02999
G1 X136.102 Y109.728 E0.03114
G1 X135.534 Y110.887 E0.03123
G1 X134.873 Y111.937 E0.02999
G1 X133.549 Y113.515 E0.04982
G1 X132.628 Y114.350 E0.03008
G1 X131.588 Y115.109 E0.03113
G1 X130.470 Y115.755 E0.03123
G1 X129.341 Y116.258 E0.02989
G1 X127.358 Y116.833 E0.04992
G1 X126.132 Y117.013 E0.02999
G1 X124.873 Y117.065 E0.03047
G1 X122.842 Y116.870 E0.04934
G1 X121.639 Y116.587 E0.02989
G1 X120.420 Y116.162 E0.03123
G1 X119.257 Y115.610 E0.03113
G1 X118.198 Y114.964 E0.02999
