; generated by PrusaSlicer 2.1.0+ on 2020-03-02 at 17:04:43 UTC

; 

; external perimeters extrusion width = 0.45mm
; perimeters extrusion width = 0.45mm
; infill extrusion width = 0.45mm
; solid infill extrusion width = 0.45mm
; top infill extrusion width = 0.40mm
; first layer extrusion width = 0.42mm

M73 P0 R6
M73 Q0 S6
M201 X1000 Y1000 Z1000 E5000 ; sets maximum accelerations, mm/sec^2
M203 X200 Y200 Z12 E120 ; sets maximum feedrates, mm/sec
M204 P1250 R1250 T1250 ; sets acceleration (P, T) and retract acceleration (R), mm/sec^2
M205 X8.00 Y8.00 Z0.40 E1.50 ; sets the jerk limits, mm/sec
M205 S0 T0 ; sets the minimum extruding and travel feed rate, mm/sec
M107
M862.3 P "MK3S" ; printer model check
M862.1 P0.4 ; nozzle diameter check
M115 U3.8.0 ; tell printer latest fw version
G90 ; use absolute coordinates
M83 ; extruder relative mode
M104 S215 ; set extruder temp
M140 S60 ; set bed temp
M190 S60 ; wait for bed temp
M109 S215 ; wait for extruder temp
G28 W ; home all without mesh bed level
G80 ; mesh bed leveling
G1 Y-3.0 F1000.0 ; go outside print area
G92 E0.0
G1 X60.0 E9.0 F1000.0 ; intro line
M73 Q1 S6
M73 P1 R5
G1 X100.0 E12.5 F1000.0 ; intro line
G92 E0.0
M221 S95
G21 ; set units to millimeters
G90 ; use absolute coordinates
M83 ; use relative distances for extrusion
M900 K30 ; Filament gcode
;BEFORE_LAYER_CHANGE
G92 E0.0
;0.2


G1 E-0.80000 F2100.00000
G1 Z0.600 F10800.000
;AFTER_LAYER_CHANGE
;0.2
G1 X119.608 Y99.518
G1 Z0.200
G1 E0.80000 F2100.00000
M204 S1000
G1 F1052
G1 X120.685 Y98.633 E0.04373
G1 X122.074 Y97.886 E0.04946
G1 X123.596 Y97.437 E0.04973
G1 X124.941 Y97.308 E0.04239
G1 X126.533 Y97.461 E0.05013
G1 X128.042 Y97.935 E0.04960
G1 X129.253 Y98.590 E0.04318
G1 X130.472 Y99.592 E0.04946
G1 X131.467 Y100.833 E0.04986
G1 X132.101 Y102.041 E0.04279
G1 X132.558 Y103.560 E0.04973
G1 X132.692 Y105.128 E0.04933
G1 X132.546 Y106.497 E0.04318
G1 X132.079 Y108.013 E0.04973
G1 X131.313 Y109.397 E0.04960
G1 X130.437 Y110.443 E0.04279
G1 X129.202 Y111.445 E0.04986
G1 X127.798 Y112.165 E0.04946
G1 X126.484 Y112.548 E0.04292
G1 X124.934 Y112.692 E0.04880
G1 X123.593 Y112.562 E0.04226
G1 X122.076 Y112.115 E0.04960
G1 X120.682 Y111.366 E0.04960
G1 X119.620 Y110.496 E0.04305
G1 X118.611 Y109.283 E0.04946
G1 X117.870 Y107.886 E0.04960
G1 X117.472 Y106.576 E0.04292
G1 X117.308 Y104.998 E0.04973
G1 X117.472 Y103.425 E0.04960
G1 X117.870 Y102.116 E0.04292
G1 X118.613 Y100.714 E0.04973
G1 X119.569 Y99.564 E0.04689
G1 X119.858 Y99.805 F10800.000
G1 F1052
G1 X120.893 Y98.947 E0.04215
G1 X122.219 Y98.234 E0.04720
G1 X123.667 Y97.808 E0.04733
G1 X124.941 Y97.685 E0.04013
G1 X126.459 Y97.831 E0.04782
G1 X127.899 Y98.283 E0.04732
G1 X129.041 Y98.902 E0.04074
G1 X130.204 Y99.858 E0.04720
G1 X131.151 Y101.039 E0.04745
G1 X131.753 Y102.186 E0.04062
G1 X132.187 Y103.631 E0.04733
G1 X132.315 Y105.128 E0.04708
G1 X132.177 Y106.420 E0.04074
G1 X131.732 Y107.866 E0.04745
G1 X131.000 Y109.186 E0.04733
G1 X130.173 Y110.173 E0.04037
G1 X128.995 Y111.129 E0.04757
G1 X127.655 Y111.816 E0.04720
G1 X126.415 Y112.177 E0.04050
G1 X124.936 Y112.315 E0.04658
G1 X123.666 Y112.192 E0.04000
G1 X122.218 Y111.766 E0.04733
G1 X120.892 Y111.052 E0.04720
G1 X119.889 Y110.233 E0.04062
G1 X118.924 Y109.073 E0.04733
G1 X118.218 Y107.739 E0.04733
G1 X117.842 Y106.503 E0.04050
G1 X117.685 Y104.998 E0.04745
G1 X117.842 Y103.496 E0.04733
G1 X118.218 Y102.261 E0.04050
G1 X118.924 Y100.927 E0.04733
G1 X119.820 Y99.851 E0.04389
G1 X120.108 Y100.091 F10800.000
G1 F1052
G1 X120.155 Y100.035 E0.00231
G1 X121.102 Y99.261 E0.03832
G1 X122.363 Y98.582 E0.04493
G1 X123.742 Y98.177 E0.04505
G1 X124.940 Y98.062 E0.03775
G1 X126.385 Y98.201 E0.04550
G1 X127.755 Y98.632 E0.04505
G1 X128.827 Y99.212 E0.03821
G1 X129.937 Y100.124 E0.04505
G1 X130.837 Y101.248 E0.04516
G1 X131.404 Y102.327 E0.03821
G1 X131.817 Y103.703 E0.04505
G1 X131.938 Y105.128 E0.04482
G1 X131.808 Y106.343 E0.03832
G1 X131.386 Y107.716 E0.04505
G1 X130.687 Y108.976 E0.04516
G1 X129.909 Y109.904 E0.03798
G1 X128.791 Y110.812 E0.04516
G1 X127.513 Y111.467 E0.04505
G1 X126.346 Y111.807 E0.03809
G1 X124.937 Y111.938 E0.04436
G1 X123.742 Y111.823 E0.03764
G1 X122.364 Y111.418 E0.04505
G1 X121.099 Y110.737 E0.04505
G1 X120.156 Y109.966 E0.03821
G1 X119.238 Y108.865 E0.04493
G1 X118.566 Y107.595 E0.04505
G1 X118.212 Y106.429 E0.03821
G1 X118.062 Y105.000 E0.04505
G1 X118.211 Y103.571 E0.04505
G1 X118.566 Y102.406 E0.03821
G1 X119.238 Y101.136 E0.04505
G1 X120.070 Y100.137 E0.04074
G1 F8640
G1 X120.155 Y100.035 E-0.03085
G1 X121.102 Y99.261 E-0.28220
G1 X122.363 Y98.582 E-0.33089
G1 X122.846 Y98.441 E-0.11605
G1 E-0.04000 F2100.00000
G1 Z0.800 F10800.000
G1 X122.091 Y102.027
G1 Z0.200
G1 E0.80000 F2100.00000
G1 F1052
G1 X122.456 Y101.707 E0.01524
G1 X122.824 Y101.453 E0.01401
G1 X123.414 Y101.152 E0.02076
G1 X123.843 Y101.002 E0.01426
G1 X124.278 Y100.901 E0.01401
G1 X124.949 Y100.838 E0.02112
G1 X125.391 Y100.856 E0.01388
G1 X125.833 Y100.922 E0.01402
G1 X126.266 Y101.035 E0.01401
G1 X126.684 Y101.193 E0.01401
G1 X127.266 Y101.508 E0.02076
G1 X127.633 Y101.776 E0.01426
G1 X127.964 Y102.077 E0.01401
G1 X128.260 Y102.411 E0.01401
G1 X128.519 Y102.776 E0.01401
G1 X128.832 Y103.372 E0.02112
G1 X128.983 Y103.788 E0.01388
G1 X129.090 Y104.222 E0.01402
G1 X129.149 Y104.665 E0.01401
G1 X129.161 Y105.112 E0.01401
G1 X129.089 Y105.782 E0.02112
G1 X128.983 Y106.211 E0.01388
G1 X128.830 Y106.631 E0.01402
G1 X128.523 Y107.218 E0.02076
G1 X128.260 Y107.589 E0.01426
G1 X127.964 Y107.923 E0.01401
G1 X127.633 Y108.224 E0.01401
G1 X127.272 Y108.488 E0.01401
G1 X126.680 Y108.808 E0.02112
G1 X126.266 Y108.965 E0.01388
G1 X125.833 Y109.078 E0.01402
G1 X125.391 Y109.144 E0.01401
G1 X124.945 Y109.162 E0.01401
G1 X124.274 Y109.098 E0.02112
G1 X123.843 Y108.998 E0.01388
G1 X123.421 Y108.851 E0.01402
G1 X123.017 Y108.659 E0.01401
G1 X122.637 Y108.425 E0.01401
G1 X122.115 Y107.999 E0.02112
G1 X121.813 Y107.675 E0.01388
G1 X121.544 Y107.318 E0.01402
G1 X121.316 Y106.934 E0.01401
G1 X121.126 Y106.521 E0.01426
G1 X120.934 Y105.887 E0.02076
G1 X120.863 Y105.446 E0.01401
G1 X120.839 Y105.000 E0.01401
G1 X120.863 Y104.554 E0.01401
G1 X120.934 Y104.113 E0.01401
G1 X121.131 Y103.468 E0.02112
G1 X121.315 Y103.066 E0.01388
G1 X121.544 Y102.682 E0.01402
G1 X121.813 Y102.325 E0.01401
G1 X122.050 Y102.071 E0.01089
G1 X121.774 Y101.813 F10800.000
G1 F1052
G1 X122.225 Y101.408 E0.01902
G1 X122.626 Y101.131 E0.01528
G1 X123.057 Y100.897 E0.01537
G1 X123.275 Y100.801 E0.00747
G1 X123.738 Y100.640 E0.01537
G1 X124.213 Y100.529 E0.01528
G1 X124.699 Y100.470 E0.01536
G1 X124.949 Y100.461 E0.00786
G1 X125.427 Y100.480 E0.01498
G1 X125.909 Y100.552 E0.01528
G1 X126.380 Y100.675 E0.01528
G1 X126.836 Y100.848 E0.01528
G1 X127.273 Y101.070 E0.01537
G1 X127.476 Y101.194 E0.00747
G1 X127.872 Y101.484 E0.01537
G1 X128.232 Y101.812 E0.01528
G1 X128.556 Y102.176 E0.01528
G1 X128.838 Y102.574 E0.01528
G1 X129.077 Y103.001 E0.01536
G1 X129.181 Y103.229 E0.00786
G1 X129.344 Y103.678 E0.01498
G1 X129.461 Y104.152 E0.01528
G1 X129.526 Y104.635 E0.01528
G1 X129.539 Y105.122 E0.01528
G1 X129.499 Y105.610 E0.01536
G1 X129.459 Y105.858 E0.00786
G1 X129.344 Y106.321 E0.01498
G1 X129.177 Y106.779 E0.01528
G1 X128.961 Y107.219 E0.01537
G1 X128.839 Y107.424 E0.00747
G1 X128.556 Y107.824 E0.01537
G1 X128.232 Y108.188 E0.01528
G1 X127.872 Y108.516 E0.01528
G1 X127.478 Y108.804 E0.01528
G1 X127.054 Y109.049 E0.01536
G1 X126.827 Y109.156 E0.00786
G1 X126.381 Y109.325 E0.01498
G1 X125.909 Y109.448 E0.01528
G1 X125.427 Y109.520 E0.01528
G1 X124.940 Y109.539 E0.01528
G1 X124.451 Y109.506 E0.01536
G1 X124.203 Y109.469 E0.00786
G1 X123.738 Y109.360 E0.01498
G1 X123.278 Y109.200 E0.01528
G1 X122.837 Y108.991 E0.01528
G1 X122.422 Y108.736 E0.01528
G1 X122.034 Y108.437 E0.01536
G1 X121.849 Y108.267 E0.00786
G1 X121.523 Y107.918 E0.01498
G1 X121.230 Y107.528 E0.01528
G1 X120.981 Y107.110 E0.01528
G1 X120.777 Y106.664 E0.01537
G1 X120.696 Y106.440 E0.00747
G1 X120.565 Y105.968 E0.01537
G1 X120.487 Y105.487 E0.01528
G1 X120.461 Y105.000 E0.01528
G1 X120.487 Y104.513 E0.01528
G1 X120.565 Y104.032 E0.01528
G1 X120.695 Y103.560 E0.01536
G1 X120.782 Y103.325 E0.00786
G1 X120.981 Y102.890 E0.01498
G1 X121.230 Y102.472 E0.01528
G1 X121.523 Y102.082 E0.01528
G1 X121.733 Y101.857 E0.00965
G1 X122.160 Y101.918 F10800.000
G1 F8640
G1 X122.225 Y101.408 E-0.15384
G1 X122.626 Y101.131 E-0.11253
G1 X123.057 Y100.897 E-0.11318
G1 X123.275 Y100.801 E-0.05498
G1 X123.738 Y100.640 E-0.11318
G1 X124.213 Y100.529 E-0.11253
G1 X124.641 Y100.477 E-0.09974
G1 E-0.04000 F2100.00000
G1 Z0.800 F10800.000
G1 X121.082 Y105.999
G1 Z0.200
G1 E0.80000 F2100.00000
G1 F1052
G1 X123.749 Y108.666 E0.12132
G1 X123.918 Y108.725 E0.00577
G1 X124.468 Y108.838 E0.01806
G1 X121.163 Y105.533 E0.15037
G1 X121.125 Y104.947 E0.01888
G1 X125.052 Y108.874 E0.17869
G1 X125.365 Y108.862 E0.01006
G1 X125.558 Y108.833 E0.00629
G1 X121.167 Y104.442 E0.19976
G1 X121.262 Y103.989 E0.01488
G1 X126.012 Y108.739 E0.21610
G1 X126.176 Y108.696 E0.00548
G1 X126.417 Y108.598 E0.00837
G1 X121.402 Y103.583 E0.22818
G1 X121.566 Y103.199 E0.01341
G1 X126.800 Y108.434 E0.23814
G1 X127.144 Y108.231 E0.01286
G1 X121.770 Y102.856 E0.24454
G1 X121.779 Y102.840 E0.00061
G1 X122.003 Y102.542 E0.01197
G1 X127.460 Y107.999 E0.24828
G1 X127.746 Y107.738 E0.01246
G1 X122.264 Y102.256 E0.24944
G1 X122.552 Y101.997 E0.01246
G1 X128.005 Y107.450 E0.24809
G1 X128.230 Y107.127 E0.01265
G1 X122.868 Y101.766 E0.24393
G1 X123.213 Y101.563 E0.01286
G1 X128.438 Y106.788 E0.23771
G1 X128.609 Y106.412 E0.01329
G1 X123.595 Y101.398 E0.22812
G1 X124.000 Y101.256 E0.01381
G1 X128.740 Y105.997 E0.21568
G1 X128.839 Y105.548 E0.01478
G1 X124.455 Y101.164 E0.19943
G1 X124.744 Y101.129 E0.00934
G1 X124.971 Y101.133 E0.00731
G1 X128.877 Y105.038 E0.17769
G1 X128.867 Y104.688 E0.01128
G1 X128.835 Y104.450 E0.00773
G1 X125.551 Y101.166 E0.14940
G1 X125.777 Y101.200 E0.00733
G1 X126.272 Y101.340 E0.01656
G1 X128.914 Y103.981 E0.12018
G1 X128.559 Y103.079 F10800.000
G1 F1052
G1 X126.920 Y101.440 E0.07459
G1 F8640
G1 X128.559 Y103.079 E-0.53533
G1 E-0.26467 F2100.00000
G1 Z0.800 F10800.000
G1 X121.415 Y106.878
G1 Z0.200
G1 E0.80000 F2100.00000
G1 F1052
G1 X123.118 Y108.582 E0.07751
M106 S255
;BEFORE_LAYER_CHANGE
G92 E0.0
;0.35


G1 F8640
G1 X121.415 Y106.878 E-0.55630
G1 E-0.24370 F2100.00000
G1 Z0.800 F10800.000
;AFTER_LAYER_CHANGE
;0.35
G1 X118.611 Y109.283
G1 Z0.350
G1 E0.80000 F2100.00000
G1 F900
G1 X117.870 Y107.886 E0.03826
G1 X117.472 Y106.576 E0.03310
G1 X117.308 Y104.998 E0.03836
G1 X117.472 Y103.425 E0.03826
G1 X117.870 Y102.116 E0.03311
G1 X118.613 Y100.714 E0.03836
G1 X119.622 Y99.501 E0.03815
G1 X120.685 Y98.633 E0.03321
G1 X122.074 Y97.886 E0.03815
G1 X123.596 Y97.437 E0.03836
G1 X124.941 Y97.308 E0.03270
G1 X126.533 Y97.461 E0.03866
G1 X128.042 Y97.935 E0.03826
G1 X129.253 Y98.590 E0.03331
G1 X130.472 Y99.592 E0.03815
G1 X131.467 Y100.833 E0.03846
G1 X132.101 Y102.041 E0.03300
G1 X132.558 Y103.560 E0.03836
G1 X132.692 Y105.128 E0.03805
G1 X132.546 Y106.497 E0.03331
G1 X132.079 Y108.013 E0.03836
G1 X131.313 Y109.397 E0.03826
G1 X130.437 Y110.443 E0.03300
G1 X129.202 Y111.445 E0.03846
G1 X127.798 Y112.165 E0.03815
G1 X126.484 Y112.548 E0.03310
G1 X124.934 Y112.692 E0.03764
G1 X123.593 Y112.562 E0.03260
G1 X122.076 Y112.115 E0.03826
G1 X120.682 Y111.366 E0.03826
G1 X119.620 Y110.496 E0.03321
G1 X118.649 Y109.329 E0.03670
G1 F8640
G1 X117.870 Y107.886 E-0.37881
G1 X117.472 Y106.576 E-0.31607
G1 X117.443 Y106.296 E-0.06512
G1 E-0.04000 F2100.00000
G1 Z0.950 F10800.000
G1 X121.473 Y107.101
G1 Z0.350
G1 E0.80000 F2100.00000
M204 S800
G1 F900
G1 X121.268 Y106.710 E0.01149
G1 X121.106 Y106.300 E0.01149
G1 X120.989 Y105.875 E0.01149
G1 X120.918 Y105.440 E0.01149
G1 X120.895 Y105.000 E0.01149
G1 X120.918 Y104.560 E0.01149
G1 X120.989 Y104.125 E0.01149
G1 X121.108 Y103.693 E0.01166
G1 X121.190 Y103.471 E0.00619
G1 X121.365 Y103.092 E0.01085
G1 X121.590 Y102.713 E0.01150
G1 X121.855 Y102.361 E0.01149
G1 X122.156 Y102.039 E0.01149
G1 X122.490 Y101.751 E0.01149
G1 X122.858 Y101.497 E0.01166
G1 X123.442 Y101.201 E0.01703
G1 X123.858 Y101.056 E0.01150
G1 X124.288 Y100.956 E0.01149
G1 X124.732 Y100.902 E0.01166
G1 X125.386 Y100.912 E0.01703
G1 X125.822 Y100.977 E0.01150
G1 X126.249 Y101.088 E0.01149
G1 X126.661 Y101.244 E0.01149
G1 X127.062 Y101.448 E0.01171
G1 X127.598 Y101.819 E0.01700
G1 X127.924 Y102.116 E0.01149
G1 X128.221 Y102.451 E0.01166
G1 X128.584 Y102.994 E0.01703
G1 X128.779 Y103.390 E0.01150
G1 X128.929 Y103.805 E0.01149
G1 X129.035 Y104.233 E0.01149
G1 X129.094 Y104.670 E0.01149
G1 X129.095 Y105.322 E0.01700
G1 X129.035 Y105.767 E0.01171
G1 X128.929 Y106.195 E0.01149
G1 X128.779 Y106.610 E0.01149
G1 X128.580 Y107.013 E0.01171
G1 X128.216 Y107.554 E0.01700
G1 X127.924 Y107.884 E0.01149
G1 X127.598 Y108.181 E0.01149
G1 X127.062 Y108.552 E0.01700
G1 X126.661 Y108.756 E0.01171
G1 X126.249 Y108.912 E0.01149
G1 X125.822 Y109.023 E0.01149
G1 X125.386 Y109.088 E0.01149
G1 X124.946 Y109.106 E0.01149
G1 X124.499 Y109.076 E0.01166
G1 X123.859 Y108.944 E0.01703
G1 X123.442 Y108.799 E0.01150
G1 X123.038 Y108.607 E0.01166
G1 X122.491 Y108.250 E0.01703
G1 X122.156 Y107.961 E0.01150
G1 X121.849 Y107.633 E0.01171
G1 X121.506 Y107.151 E0.01543
M204 S1000
G1 X121.159 Y107.383 F10800.000
M204 S800
G1 F900
G1 X120.887 Y106.885 E0.01479
G1 X120.709 Y106.433 E0.01266
G1 X120.580 Y105.964 E0.01266
G1 X120.502 Y105.485 E0.01266
G1 X120.476 Y105.000 E0.01266
G1 X120.502 Y104.515 E0.01266
G1 X120.580 Y104.036 E0.01266
G1 X120.710 Y103.565 E0.01272
G1 X120.804 Y103.310 E0.00708
G1 X120.994 Y102.897 E0.01184
G1 X121.243 Y102.480 E0.01266
G1 X121.535 Y102.092 E0.01266
G1 X121.867 Y101.737 E0.01266
G1 X122.234 Y101.420 E0.01266
G1 X122.636 Y101.142 E0.01272
G1 X122.872 Y101.008 E0.00708
G1 X123.283 Y100.814 E0.01184
G1 X123.742 Y100.654 E0.01266
G1 X124.215 Y100.544 E0.01266
G1 X124.700 Y100.485 E0.01272
G1 X124.971 Y100.476 E0.00708
G1 X125.425 Y100.495 E0.01184
G1 X125.906 Y100.567 E0.01266
G1 X126.376 Y100.689 E0.01266
G1 X126.830 Y100.862 E0.01266
G1 X127.266 Y101.083 E0.01274
G1 X127.468 Y101.207 E0.00617
G1 X127.862 Y101.495 E0.01274
G1 X128.222 Y101.822 E0.01266
G1 X128.545 Y102.187 E0.01272
G1 X128.707 Y102.406 E0.00708
G1 X128.949 Y102.790 E0.01184
G1 X129.163 Y103.226 E0.01266
G1 X129.330 Y103.683 E0.01266
G1 X129.446 Y104.155 E0.01266
G1 X129.511 Y104.636 E0.01266
G1 X129.524 Y105.125 E0.01274
G1 X129.511 Y105.361 E0.00617
G1 X129.446 Y105.845 E0.01274
G1 X129.330 Y106.317 E0.01266
G1 X129.163 Y106.774 E0.01266
G1 X128.948 Y107.212 E0.01274
G1 X128.827 Y107.416 E0.00617
G1 X128.544 Y107.814 E0.01274
G1 X128.222 Y108.178 E0.01266
G1 X127.862 Y108.505 E0.01266
G1 X127.468 Y108.793 E0.01274
G1 X127.266 Y108.917 E0.00617
G1 X126.830 Y109.138 E0.01274
G1 X126.376 Y109.311 E0.01266
G1 X125.906 Y109.433 E0.01266
G1 X125.425 Y109.505 E0.01266
G1 X124.940 Y109.524 E0.01266
G1 X124.453 Y109.492 E0.01272
G1 X124.185 Y109.450 E0.00708
G1 X123.742 Y109.346 E0.01184
G1 X123.283 Y109.186 E0.01266
G1 X122.842 Y108.977 E0.01272
G1 X122.608 Y108.839 E0.00708
G1 X122.235 Y108.581 E0.01184
G1 X121.867 Y108.263 E0.01266
G1 X121.533 Y107.906 E0.01274
G1 X121.192 Y107.433 E0.01518
M204 S1000
G1 X121.347 Y107.030 F10800.000
G1 F8640
G1 X120.887 Y106.885 E-0.14491
G1 X120.709 Y106.433 E-0.11216
G1 X120.580 Y105.964 E-0.11216
G1 X120.502 Y105.485 E-0.11216
G1 X120.476 Y105.000 E-0.11216
G1 X120.502 Y104.515 E-0.11216
G1 X120.540 Y104.283 E-0.05430
G1 E-0.04000 F2100.00000
G1 Z0.950 F10800.000
G1 X121.466 Y103.175
G1 Z0.350
G1 E0.80000 F2100.00000
M204 S1250
G1 F900
G1 X123.175 Y101.466 E0.06349
M204 S1000
G1 X124.110 Y101.126 F10800.000
M204 S1250
G1 F900
G1 X121.391 Y103.845 E0.10101
G1 X121.296 Y104.192 E0.00943
G1 X121.230 Y104.602 E0.01092
G1 X124.598 Y101.234 E0.12510
G1 X124.749 Y101.216 E0.00399
G1 X125.205 Y101.222 E0.01199
G1 X121.220 Y105.208 E0.14804
G1 X121.230 Y105.407 E0.00523
G1 X121.284 Y105.739 E0.00884
G1 X125.742 Y101.282 E0.16557
G1 X126.210 Y101.408 E0.01275
